icons/line/chip.svg

<svg width="24" height="24" viewBox="0 0 24 24" fill="none" xmlns="http://www.w3.org/2000/svg">
<path d="M9 5H7C5.89543 5 5 5.89543 5 7V9M9 5V3M9 5H15M15 5H17C18.1046 5 19 5.89543 19 7V17C19 18.1046 18.1046 19 17 19H7C5.89543 19 5 18.1046 5 17V15M15 5V3M9 21V19M15 21V19M5 15H3M5 15V9M5 9H3M21 15H19M21 9H19M9 9H15V15H9V9Z" stroke="currentColor" stroke-width="2" stroke-linecap="round" stroke-linejoin="round"/>
</svg>

<svg width="24" height="24" fill="none" xmlns="http://www.w3.org/2000/svg"><path d="M9 5H7a2 2 0 00-2 2v2m4-4V3m0 2h6m0 0h2a2 2 0 012 2v10a2 2 0 01-2 2H7a2 2 0 01-2-2v-2M15 5V3M9 21v-2m6 2v-2M5 15H3m2 0V9m0 0H3m18 6h-2m2-6h-2M9 9h6v6H9V9z" stroke="currentColor" stroke-width="2" stroke-linecap="round" stroke-linejoin="round"/></svg>
